public/assets/logo_horizontal_white_eng.svg

<svg width="171" height="84" xmlns="http://www.w3.org/2000/svg" fill="none">

 <g>
  <title>Layer 1</title>
  <circle id="svg_1" fill="#7D9ED4" r="25.8297" cy="42.0265" cx="34.3544"/>
  <path id="svg_2" fill="#CFC9EF" d="m15.4128,8.62633l50.4344,44.73147l-36.9129,21.3117l-13.5215,-66.04317z"/>
  <path id="svg_3" fill="#FACAD5" d="m15.4122,8.62665l37.2044,33.02005l-27.2104,15.7099l-9.994,-48.72995z"/>
  <path id="svg_4" fill="#9B90DA" d="m65.9844,53.6068c1.2947,2.2425 -5.9189,8.8312 -16.1121,14.7162c-10.1933,5.8851 -19.5061,8.8379 -20.8008,6.5954c-1.2947,-2.2425 5.919,-8.8312 16.1122,-14.7162c10.1932,-5.8851 19.506,-8.8379 20.8007,-6.5954z"/>
  <path id="svg_5" fill="#F7AEBF" d="m52.701,41.7512c0.9556,1.655 -4.3685,6.5179 -11.8916,10.8613c-7.5232,4.3435 -14.3965,6.5229 -15.3521,4.8678c-0.9555,-1.6551 4.3685,-6.5179 11.8917,-10.8614c7.5231,-4.3435 14.3965,-6.5228 15.352,-4.8677z"/>
  <path id="svg_6" fill="#F7AEBF" d="m52.701,41.7512c0.9556,1.655 -4.3685,6.5179 -11.8916,10.8613c-7.5232,4.3435 -14.3965,6.5229 -15.3521,4.8678c-0.9555,-1.6551 4.3685,-6.5179 11.8917,-10.8614c7.5231,-4.3435 14.3965,-6.5228 15.352,-4.8677z"/>
  <path id="svg_7" fill="#FFEEE4" d="m15.5053,8.78304l26.6415,23.55056l-19.5669,11.297l-7.0746,-34.84756z"/>
  <path id="svg_8" fill="#E8ECDC" d="m15.3444,8.5249l16.9741,15.0952l-12.3884,7.1525l-4.5857,-22.2477z"/>
  <path id="svg_9" fill="#FDC9AC" d="m42.1871,32.4441c0.6854,1.1872 -3.1333,4.6751 -8.5294,7.7905c-5.3961,3.1154 -10.3261,4.6786 -11.0115,3.4915c-0.6854,-1.1872 3.1334,-4.6751 8.5295,-7.7905c5.396,-3.1154 10.326,-4.6786 11.0114,-3.4915z"/>
  <path id="svg_10" fill="#D3D8B6" d="m32.4213,23.7621c0.4351,0.7537 -1.9892,2.9679 -5.4147,4.9456c-3.4256,1.9778 -6.5553,2.9701 -6.9904,2.2165c-0.4351,-0.7536 1.9892,-2.9678 5.4147,-4.9456c3.4256,-1.9777 6.5553,-2.9701 6.9904,-2.2165z"/>
  <path stroke-width="1.3" id="svg_11" stroke="#1f2937" fill="#1f2937" d="m72.3383,32.4828l3.1377,0l0,12.3649c0,1.1523 0.3014,2.083 0.9041,2.7921c0.6205,0.6914 1.5335,1.0371 2.7389,1.0371c1.1878,0 2.0919,-0.3457 2.7123,-1.0371c0.6205,-0.7091 0.9307,-1.6398 0.9307,-2.7921l0,-12.3649l3.1378,0l0,12.4979c0,1.0282 -0.1684,1.95 -0.5052,2.7655c-0.3191,0.7977 -0.7801,1.4802 -1.3828,2.0475c-0.6027,0.5673 -1.3207,1.0016 -2.1539,1.303c-0.8332,0.3013 -1.7461,0.452 -2.7389,0.452c-0.9927,0 -1.9057,-0.1507 -2.7389,-0.452c-0.8332,-0.3014 -1.56,-0.7357 -2.1805,-1.303c-0.6027,-0.5673 -1.0636,-1.2498 -1.3827,-2.0475c-0.3191,-0.8155 -0.4786,-1.7373 -0.4786,-2.7655l0,-12.4979zm25.2151,11.1683c0,-0.9041 -0.1861,-1.5866 -0.5584,-2.0475c-0.3723,-0.4609 -0.9484,-0.6914 -1.7285,-0.6914c-0.5318,0 -1.0016,0.1153 -1.4093,0.3457c-0.4077,0.2128 -0.7268,0.5318 -0.9573,0.9573c-0.2304,0.4077 -0.3457,0.8864 -0.3457,1.4359l0,7.4456l-2.8718,0l0,-12.232l2.8718,0l0,1.888c0.39,-0.7268 0.8864,-1.2675 1.4891,-1.6221c0.6205,-0.3545 1.3562,-0.5318 2.2071,-0.5318c1.3828,0 2.4376,0.4255 3.1644,1.2764c0.7272,0.8332 1.0902,1.9855 1.0902,3.4568l0,7.7647l-2.9516,0l0,-7.4456zm6.5126,-9.6526c0,-0.4964 0.177,-0.9129 0.532,-1.2498c0.372,-0.3368 0.798,-0.5052 1.276,-0.5052c0.514,0 0.94,0.1684 1.277,0.5052c0.354,0.3369 0.532,0.7534 0.532,1.2498c0,0.4787 -0.178,0.8953 -0.532,1.2498c-0.337,0.3368 -0.763,0.5052 -1.277,0.5052c-0.478,0 -0.904,-0.1684 -1.276,-0.5052c-0.355,-0.3545 -0.532,-0.7711 -0.532,-1.2498zm0.399,4.8662l2.819,0l0,12.232l-2.819,0l0,-12.232zm8.685,6.116c0,0.78 0.169,1.4625 0.506,2.0475c0.336,0.5673 0.789,1.0194 1.356,1.3562c0.585,0.3368 1.232,0.5052 1.941,0.5052c0.585,0 1.143,-0.0886 1.675,-0.2659c0.532,-0.1773 1.002,-0.4255 1.41,-0.7446c0.407,-0.3191 0.709,-0.6736 0.904,-1.0636l0,3.1643c-0.426,0.4255 -1.002,0.7623 -1.729,1.0105c-0.727,0.2482 -1.524,0.3723 -2.393,0.3723c-1.259,0 -2.393,-0.2659 -3.404,-0.7977c-0.992,-0.5496 -1.781,-1.303 -2.366,-2.2603c-0.568,-0.975 -0.851,-2.083 -0.851,-3.3239c0,-1.2587 0.283,-2.3666 0.851,-3.3239c0.585,-0.9573 1.374,-1.7018 2.366,-2.2337c1.011,-0.5495 2.145,-0.8243 3.404,-0.8243c0.869,0 1.666,0.1241 2.393,0.3723c0.727,0.2482 1.303,0.585 1.729,1.0104l0,3.1644c-0.195,-0.4077 -0.506,-0.7623 -0.931,-1.0636c-0.408,-0.3191 -0.878,-0.5673 -1.409,-0.7446c-0.532,-0.1773 -1.082,-0.2659 -1.649,-0.2659c-0.709,0 -1.356,0.1684 -1.941,0.5052c-0.567,0.3368 -1.02,0.7978 -1.356,1.3828c-0.337,0.585 -0.506,1.2586 -0.506,2.0209zm10.035,0c0,-1.2587 0.284,-2.3666 0.851,-3.3239c0.585,-0.9573 1.374,-1.7018 2.367,-2.2337c0.993,-0.5495 2.118,-0.8243 3.377,-0.8243c1.259,0 2.375,0.2748 3.35,0.8243c0.993,0.5319 1.782,1.2764 2.367,2.2337c0.585,0.9573 0.878,2.0652 0.878,3.3239c0,1.2409 -0.293,2.3489 -0.878,3.3239c-0.585,0.9573 -1.374,1.7107 -2.367,2.2603c-0.975,0.5318 -2.091,0.7977 -3.35,0.7977c-1.259,0 -2.384,-0.2659 -3.377,-0.7977c-0.993,-0.5496 -1.782,-1.303 -2.367,-2.2603c-0.567,-0.975 -0.851,-2.083 -0.851,-3.3239zm2.952,0c0,0.7623 0.159,1.4359 0.479,2.0209c0.319,0.5673 0.753,1.0194 1.303,1.3562c0.549,0.3191 1.17,0.4786 1.861,0.4786c0.674,0 1.285,-0.1595 1.835,-0.4786c0.567,-0.3368 1.01,-0.7889 1.329,-1.3562c0.319,-0.585 0.479,-1.2586 0.479,-2.0209c0,-0.7623 -0.16,-1.4359 -0.479,-2.0209c-0.319,-0.585 -0.762,-1.0371 -1.329,-1.3562c-0.55,-0.3191 -1.161,-0.4786 -1.835,-0.4786c-0.691,0 -1.312,0.1595 -1.861,0.4786c-0.55,0.3191 -0.984,0.7712 -1.303,1.3562c-0.32,0.585 -0.479,1.2586 -0.479,2.0209zm15.808,-6.116l0,12.232l-2.846,0l0,-12.232l2.846,0zm3.643,3.058c-0.266,-0.2127 -0.514,-0.3723 -0.745,-0.4786c-0.23,-0.1064 -0.523,-0.1596 -0.877,-0.1596c-0.479,0 -0.869,0.1241 -1.17,0.3723c-0.302,0.2482 -0.523,0.5939 -0.665,1.037c-0.124,0.4255 -0.186,0.9307 -0.186,1.5158l-0.958,-0.5585c0,-0.975 0.178,-1.8348 0.532,-2.5793c0.373,-0.7623 0.842,-1.365 1.41,-1.8082c0.585,-0.4432 1.187,-0.6648 1.808,-0.6648c0.443,0 0.86,0.0709 1.25,0.2127c0.39,0.1241 0.718,0.3546 0.983,0.6914l-1.382,2.4198zm11.224,1.7284c0,-0.9041 -0.186,-1.5866 -0.558,-2.0475c-0.372,-0.4609 -0.948,-0.6914 -1.728,-0.6914c-0.532,0 -1.002,0.1153 -1.41,0.3457c-0.408,0.2128 -0.727,0.5318 -0.957,0.9573c-0.231,0.4077 -0.346,0.8864 -0.346,1.4359l0,7.4456l-2.872,0l0,-12.232l2.872,0l0,1.888c0.39,-0.7268 0.887,-1.2675 1.489,-1.6221c0.621,-0.3545 1.356,-0.5318 2.207,-0.5318c1.383,0 2.438,0.4255 3.165,1.2764c0.727,0.8332 1.09,1.9855 1.09,3.4568l0,7.7647l-2.952,0l0,-7.4456z"/>
 </g>
</svg>

<svg width="171" height="84" viewBox="0 0 171 84" fill="none" xmlns="http://www.w3.org/2000/svg">
<circle cx="34.3544" cy="42.0265" r="25.8297" fill="#7D9ED4"/>
<path d="M15.4128 8.62633L65.8472 53.3578L28.9343 74.6695L15.4128 8.62633Z" fill="#CFC9EF"/>
<path d="M15.4122 8.62665L52.6166 41.6467L25.4062 57.3566L15.4122 8.62665Z" fill="#FACAD5"/>
<path d="M65.9844 53.6068C67.2791 55.8493 60.0655 62.438 49.8723 68.323C39.679 74.2081 30.3662 77.1609 29.0715 74.9184C27.7768 72.6759 34.9905 66.0872 45.1837 60.2022C55.3769 54.3171 64.6897 51.3643 65.9844 53.6068Z" fill="#9B90DA"/>
<path d="M52.701 41.7512C53.6566 43.4062 48.3325 48.2691 40.8094 52.6125C33.2862 56.956 26.4129 59.1354 25.4573 57.4803C24.5018 55.8252 29.8258 50.9624 37.349 46.6189C44.8721 42.2754 51.7455 40.0961 52.701 41.7512Z" fill="#F7AEBF"/>
<path d="M52.701 41.7512C53.6566 43.4062 48.3325 48.2691 40.8094 52.6125C33.2862 56.956 26.4129 59.1354 25.4573 57.4803C24.5018 55.8252 29.8258 50.9624 37.349 46.6189C44.8721 42.2754 51.7455 40.0961 52.701 41.7512Z" fill="#F7AEBF"/>
<path d="M15.5053 8.78304L42.1468 32.3336L22.5799 43.6306L15.5053 8.78304Z" fill="#FFEEE4"/>
<path d="M15.3444 8.5249L32.3185 23.6201L19.9301 30.7726L15.3444 8.5249Z" fill="#E8ECDC"/>
<path d="M42.1871 32.4441C42.8725 33.6313 39.0538 37.1192 33.6577 40.2346C28.2616 43.35 23.3316 44.9132 22.6462 43.7261C21.9608 42.5389 25.7796 39.051 31.1757 35.9356C36.5717 32.8202 41.5017 31.257 42.1871 32.4441Z" fill="#FDC9AC"/>
<path d="M32.4213 23.7621C32.8564 24.5158 30.4321 26.73 27.0066 28.7077C23.581 30.6855 20.4513 31.6778 20.0162 30.9242C19.5811 30.1706 22.0054 27.9564 25.4309 25.9786C28.8565 24.0009 31.9862 23.0085 32.4213 23.7621Z" fill="#D3D8B6"/>
<path d="M72.3383 32.4828H75.476V44.8477C75.476 46 75.7774 46.9307 76.3801 47.6398C77.0006 48.3312 77.9136 48.6769 79.119 48.6769C80.3068 48.6769 81.2109 48.3312 81.8313 47.6398C82.4518 46.9307 82.762 46 82.762 44.8477V32.4828H85.8998V44.9807C85.8998 46.0089 85.7314 46.9307 85.3946 47.7462C85.0755 48.5439 84.6145 49.2264 84.0118 49.7937C83.4091 50.361 82.6911 50.7953 81.8579 51.0967C81.0247 51.398 80.1118 51.5487 79.119 51.5487C78.1263 51.5487 77.2133 51.398 76.3801 51.0967C75.5469 50.7953 74.8201 50.361 74.1996 49.7937C73.5969 49.2264 73.136 48.5439 72.8169 47.7462C72.4978 46.9307 72.3383 46.0089 72.3383 44.9807V32.4828ZM97.5534 43.6511C97.5534 42.747 97.3673 42.0645 96.995 41.6036C96.6227 41.1427 96.0466 40.9122 95.2665 40.9122C94.7347 40.9122 94.2649 41.0275 93.8572 41.2579C93.4495 41.4707 93.1304 41.7897 92.8999 42.2152C92.6695 42.6229 92.5542 43.1016 92.5542 43.6511V51.0967H89.6824V38.8647H92.5542V40.7527C92.9442 40.0259 93.4406 39.4852 94.0433 39.1306C94.6638 38.7761 95.3995 38.5988 96.2504 38.5988C97.6332 38.5988 98.688 39.0243 99.4148 39.8752C100.142 40.7084 100.505 41.8607 100.505 43.332V51.0967H97.5534V43.6511ZM104.066 33.9985C104.066 33.5021 104.243 33.0856 104.598 32.7487C104.97 32.4119 105.396 32.2435 105.874 32.2435C106.388 32.2435 106.814 32.4119 107.151 32.7487C107.505 33.0856 107.683 33.5021 107.683 33.9985C107.683 34.4772 107.505 34.8938 107.151 35.2483C106.814 35.5851 106.388 35.7535 105.874 35.7535C105.396 35.7535 104.97 35.5851 104.598 35.2483C104.243 34.8938 104.066 34.4772 104.066 33.9985ZM104.465 38.8647H107.284V51.0967H104.465V38.8647ZM113.15 44.9807C113.15 45.7607 113.319 46.4432 113.656 47.0282C113.992 47.5955 114.445 48.0476 115.012 48.3844C115.597 48.7212 116.244 48.8896 116.953 48.8896C117.538 48.8896 118.096 48.801 118.628 48.6237C119.16 48.4464 119.63 48.1982 120.038 47.8791C120.445 47.56 120.747 47.2055 120.942 46.8155V49.9798C120.516 50.4053 119.94 50.7421 119.213 50.9903C118.486 51.2385 117.689 51.3626 116.82 51.3626C115.561 51.3626 114.427 51.0967 113.416 50.5649C112.424 50.0153 111.635 49.2619 111.05 48.3046C110.482 47.3296 110.199 46.2216 110.199 44.9807C110.199 43.722 110.482 42.6141 111.05 41.6568C111.635 40.6995 112.424 39.955 113.416 39.4231C114.427 38.8736 115.561 38.5988 116.82 38.5988C117.689 38.5988 118.486 38.7229 119.213 38.9711C119.94 39.2193 120.516 39.5561 120.942 39.9815V43.1459C120.747 42.7382 120.436 42.3836 120.011 42.0823C119.603 41.7632 119.133 41.515 118.602 41.3377C118.07 41.1604 117.52 41.0718 116.953 41.0718C116.244 41.0718 115.597 41.2402 115.012 41.577C114.445 41.9138 113.992 42.3748 113.656 42.9598C113.319 43.5448 113.15 44.2184 113.15 44.9807ZM123.185 44.9807C123.185 43.722 123.469 42.6141 124.036 41.6568C124.621 40.6995 125.41 39.955 126.403 39.4231C127.396 38.8736 128.521 38.5988 129.78 38.5988C131.039 38.5988 132.155 38.8736 133.13 39.4231C134.123 39.955 134.912 40.6995 135.497 41.6568C136.082 42.6141 136.375 43.722 136.375 44.9807C136.375 46.2216 136.082 47.3296 135.497 48.3046C134.912 49.2619 134.123 50.0153 133.13 50.5649C132.155 51.0967 131.039 51.3626 129.78 51.3626C128.521 51.3626 127.396 51.0967 126.403 50.5649C125.41 50.0153 124.621 49.2619 124.036 48.3046C123.469 47.3296 123.185 46.2216 123.185 44.9807ZM126.137 44.9807C126.137 45.743 126.296 46.4166 126.616 47.0016C126.935 47.5689 127.369 48.021 127.919 48.3578C128.468 48.6769 129.089 48.8364 129.78 48.8364C130.454 48.8364 131.065 48.6769 131.615 48.3578C132.182 48.021 132.625 47.5689 132.944 47.0016C133.263 46.4166 133.423 45.743 133.423 44.9807C133.423 44.2184 133.263 43.5448 132.944 42.9598C132.625 42.3748 132.182 41.9227 131.615 41.6036C131.065 41.2845 130.454 41.125 129.78 41.125C129.089 41.125 128.468 41.2845 127.919 41.6036C127.369 41.9227 126.935 42.3748 126.616 42.9598C126.296 43.5448 126.137 44.2184 126.137 44.9807ZM141.945 38.8647V51.0967H139.099V38.8647H141.945ZM145.588 41.9227C145.322 41.71 145.074 41.5504 144.843 41.4441C144.613 41.3377 144.32 41.2845 143.966 41.2845C143.487 41.2845 143.097 41.4086 142.796 41.6568C142.494 41.905 142.273 42.2507 142.131 42.6938C142.007 43.1193 141.945 43.6245 141.945 44.2096L140.987 43.6511C140.987 42.6761 141.165 41.8163 141.519 41.0718C141.892 40.3095 142.361 39.7068 142.929 39.2636C143.514 38.8204 144.116 38.5988 144.737 38.5988C145.18 38.5988 145.597 38.6697 145.987 38.8115C146.377 38.9356 146.705 39.1661 146.97 39.5029L145.588 41.9227ZM156.812 43.6511C156.812 42.747 156.626 42.0645 156.254 41.6036C155.882 41.1427 155.306 40.9122 154.526 40.9122C153.994 40.9122 153.524 41.0275 153.116 41.2579C152.708 41.4707 152.389 41.7897 152.159 42.2152C151.928 42.6229 151.813 43.1016 151.813 43.6511V51.0967H148.941V38.8647H151.813V40.7527C152.203 40.0259 152.7 39.4852 153.302 39.1306C153.923 38.7761 154.658 38.5988 155.509 38.5988C156.892 38.5988 157.947 39.0243 158.674 39.8752C159.401 40.7084 159.764 41.8607 159.764 43.332V51.0967H156.812V43.6511Z" fill="black"/>
</svg>
